X:638
T: WER WEISS WORAUS DAS BRUENNLEIN QUILLT
N: E2005
O: Europa, Mitteleuropa, Deutschland, Westfalen, Paderborn
R: geistlich, Lob - Lied
M: 4/4
L: 1/8
K: F
FA | c2c2c2dB | A2A2A2
A2 | G2A2cBA2 | A4G2
FA | c2c2c2dB | A2A2A2
A2 | G2A2cBA2 | A4G2
F2 | E3GB3G | F2A2c2
A2 | B3dd3B | B4A2
F2 | E3GB3G | F2A2c2
A2 | B3dd3B | B4A2

